web/wp-content/themes/wgcacsc/assets/images/pdf_icon.svg

<?xml version="1.0" encoding="UTF-8" standalone="no"?>
<svg width="40px" height="40px" viewBox="0 0 40 40" version="1.1" xmlns="http://www.w3.org/2000/svg" xmlns:xlink="http://www.w3.org/1999/xlink">
    <!-- Generator: Sketch 39.1 (31720) - http://www.bohemiancoding.com/sketch -->
    <title>PDF icon</title>
    <desc>Created with Sketch.</desc>
    <defs></defs>
    <g id="Symbols" stroke="none" stroke-width="1" fill="none" fill-rule="evenodd">
        <g id="PDF-download-link" fill="#666666">
            <g id="PDF-icon">
                <g id="Group">
                    <path d="M18.9080758,7.42179946 L18.847109,7.42179946 C18.7251754,7.42179946 18.6642087,7.48276624 18.6032419,7.6656666 C18.3593747,8.21436766 18.5422751,9.31176978 18.9080758,10.4701387 C19.2129097,8.4582348 19.0300094,7.60469981 18.9080758,7.42179946 L18.9080758,7.42179946 Z" id="Shape"></path>
                    <path d="M10.6775599,28.3943733 C10.6775599,28.4553401 10.6165931,28.6992072 11.1043274,29.0650079 C11.226261,29.0040411 12.0797959,28.6382404 13.6039655,25.8337684 C11.5310949,26.9311705 10.7385267,27.8456722 10.6775599,28.3943733 L10.6775599,28.3943733 Z" id="Shape"></path>
                    <path d="M16.8352051,22.541562 C18.7861422,21.7489938 20.9809465,21.139326 22.9318836,20.6515917 C21.6515811,19.1883889 20.3712786,17.2984185 19.3348433,15.4084482 C18.6642087,17.725186 17.8106737,20.285791 16.8352051,22.541562 L16.8352051,22.541562 Z" id="Shape"></path>
                    <path d="M20,0 C8.97777778,0 0,8.97777778 0,20 C0,31.0222222 8.93333333,40 20,40 C31.0666667,40 40,31.0666667 40,20 C40,8.93333333 31.0222222,0 20,0 L20,0 Z M30.3088645,23.0292963 C29.7601634,23.7608977 29.0895288,24.1266984 28.2359938,24.1266984 C27.0776249,24.1266984 25.7363556,23.395097 24.2731528,21.9928609 C21.5906143,22.541562 18.4813083,23.5779973 15.9207034,24.6753995 C15.1281352,26.3215026 14.3965337,27.7237387 13.6649323,28.6992072 C12.6894638,30.0404765 11.8359288,30.7111111 11.0433606,30.7111111 C10.7385267,30.7111111 10.372726,30.5891775 10.1288588,30.4062772 C9.15339028,29.6746758 9.03145672,28.8211408 9.0924235,28.2724397 C9.27532385,26.7482701 11.1652942,25.1021669 14.7623345,23.5170305 C16.1645705,20.4077245 17.5058398,16.5668171 18.3593747,13.3965443 C17.444873,11.3236737 16.5303712,8.70210193 17.2010058,7.11696554 C17.444873,6.56826448 17.8716405,6.20246377 18.3593747,6.01956342 C18.6032419,5.95859663 18.7861422,5.89762985 18.9690426,5.89762985 C19.4567769,5.89762985 19.8835443,6.0805302 20.1883783,6.50729769 C20.4932122,6.8730984 21.2857804,7.90953374 20.0664447,13.213644 C21.3467472,15.8352157 23.1147839,18.5177542 24.8828207,20.3467578 C26.1021564,20.1028906 27.1995585,19.9809571 28.0530935,19.9809571 C29.5162963,19.9809571 30.430798,20.3467578 30.7965988,21.0173924 C30.9794991,21.5660934 30.8575655,22.2367281 30.3088645,23.0292963 L30.3088645,23.0292963 Z" id="Shape"></path>
                    <path d="M26.2850567,21.6270602 C27.0776249,22.2367281 27.7482595,22.541562 28.2359938,22.541562 C28.4798609,22.541562 28.7237281,22.4805952 29.028562,22.0538277 C29.1504956,21.8709274 29.2114624,21.7489938 29.2724291,21.688027 C29.1504956,21.6270602 28.8456617,21.5051267 27.9921267,21.5051267 C27.4434256,21.5051267 26.8947246,21.5660934 26.2850567,21.6270602 L26.2850567,21.6270602 Z" id="Shape"></path>
                </g>
            </g>
        </g>
    </g>
</svg>

<svg width="40" height="40" xmlns="http://www.w3.org/2000/svg"><g fill="#000" fill-rule="evenodd"><path d="M19 7.4h-.2l-.2.3c-.2.5 0 1.6.3 2.8.3-2 .1-2.9 0-3zM10.7 28.4s0 .3.4.7c.1-.1 1-.5 2.5-3.3-2 1.1-2.9 2-3 2.6zM16.8 22.5c2-.8 4.2-1.4 6.1-1.8a30.5 30.5 0 0 1-3.6-5.3 62 62 0 0 1-2.5 7.1z"/><path d="M20 0a20 20 0 1 0 0 40 20 20 0 0 0 0-40zm10.3 23c-.5.8-1.2 1.1-2 1.1-1.2 0-2.6-.7-4-2.1a46 46 0 0 0-8.4 2.7c-.8 1.6-1.5 3-2.2 4-1 1.3-1.9 2-2.7 2l-.9-.3c-1-.7-1-1.6-1-2.1.2-1.6 2-3.2 5.7-4.8 1.4-3 2.7-7 3.6-10.1-1-2-1.9-4.7-1.2-6.3.2-.5.7-.9 1.2-1l.6-.2c.5 0 .9.2 1.2.6.3.4 1 1.4-.1 6.7 1.2 2.6 3 5.3 4.8 7.1L28 20c1.4 0 2.3.3 2.7 1 .2.6 0 1.2-.5 2z"/><path d="M26.3 21.6c.8.6 1.4 1 2 1 .2 0 .4-.1.7-.5l.3-.4c-.1 0-.5-.2-1.3-.2l-1.7.1z"/></g></svg>
